X:240
T:Shepherds Hey
M:4/4
L:1/8
K:G
BcdB c2c2 | BcdB A2A2 | BcdB c2Bc | d2D2 G4 | 
BcdB c2c2 | BcdB A2A2 | BcdB c2Bc | d2D2 G4 || 
B2G2 c3A | B2G2 A4 | BcdB c2Bc | d2D2 G4 | 
B2G2 c3A | B2G2 A4 | BcdB c2Bc | d2D2 G3 || 

